X:1
T:Artavia, 10.10.10.6
T:Artavia, 10.10.10.6
T:Edward John Hopkins, 1887
T:Public Domain Courtesy of the Cyber Hymnal™
C:Edward John Hopkins, 1887
Z:Public Domain
Z:Courtesy of the Cyber Hymnal™
%%score ( 1 2 ) ( 3 4 )
L:1/8
M:4/4
K:Ab
V:1 treble 
V:2 treble 
V:3 bass 
V:4 bass 
V:1
 [CE]2 | [CE]4 [CA]4 | [DA]2 [DG]2 [B,F]3 E | [EA]4 [EB]4 | [Ec]6 [CE]2 | [DE]4 [Ed]4 | %6
 [Ed]2 [Ec]2 [EB]3 [EA] | F4 [FB]4 | [EG]6 E2 | (d4 z2) x6 | [CA]2 [CA]2 [DG]3 [EA] | [FB]4 [Ec]4 | %12
 [Dd]6 [Ed]2 | [Ec]4 (G2 A2) | F6 z2 E2 | [CA]6 |] %16
V:2
 x2 | x8 | x7 E | x8 | x8 | x8 | x8 | F4 x4 | x6 E2 | D6 (c4 E2) | x8 | x8 | x8 | x4 E4 | %14
 B,2 C2 D4 x2 | x6 |] %16
V:3
 [A,,E,]2 | [A,,E,]4 [A,,E,]4 | [B,,E,]2 [B,,E,]2 [D,F,]3 [D,G,] | [C,A,]4 [B,,G,]4 | %4
 [A,,A,]6 [A,,A,]2 | [G,,B,]4 [G,,B,]4 | [A,,A,]2 [A,,A,]2 [B,,G,]3 [C,A,] | [D,A,]4 [B,,D]4 | %8
 [E,B,]6 [E,G,]2 | [G,,E,]4 [E,G,]4 x4 | [A,,A,]2 [A,,E,]2 [B,,E,]3 [C,A,] | [D,A,]4 [E,A,]4 | %12
 [F,A,]6 [G,B,]2 | A,4 [E,B,]2 [C,A,]2 | [D,A,]4 [E,G,]4 x2 | [A,,A,]6 |] %16
V:4
 x2 | x8 | x8 | x8 | x8 | x8 | x8 | x8 | x8 | x12 | x8 | x8 | x8 | A,4 x4 | x10 | x6 |] %16

